src/topics/icons/mparticle.svg

<svg height="116" preserveAspectRatio="xMidYMid" viewBox="0 0 256 116" width="256" xmlns="http://www.w3.org/2000/svg"><path d="m175.813757 69.0793651c5.417989 5.4179894 5.417989 14.0867725 1.083597 20.0465608-5.417989 5.4179894-14.086772 5.4179894-19.504761 0-.541799-.5417989-.541799-.5417989-.541799-.5417989l-13.003175-13.0031746-33.049735 34.6751326c-2.708995 2.708994-5.959789 4.334391-9.752381 4.334391-3.7925929 0-7.0433866-1.625397-9.7523813-4.334391l-33.0497355-34.6751326-34.6751322 34.6751326c-2.7089947 2.708994-6.5015873 3.792592-9.752381 3.792592-3.7925926 0-7.04338623-1.083598-9.75238094-3.792592-5.41798941-5.41799-5.41798941-14.0867728 0-19.5047622l44.42751324-44.9693122c2.7089947-2.1671958 5.9597884-3.7925926 9.7523809-3.7925926 3.7925926 0 7.0433863 1.6253968 9.752381 4.3343915l33.0497358 34.6751323 33.049735-34.6751323c2.708995-2.7089947 5.959788-4.3343915 9.752381-4.3343915s7.043386 1.6253968 9.752381 4.3343915zm76.39365-21.1301588c2.708995 2.1671958 3.792593 5.9597884 3.792593 9.2105821 0 3.7925926-1.083598 7.0433862-3.792593 9.7523809l-44.969312 44.9693117c-2.708994 2.708995-6.501587 3.792593-9.752381 3.792593-.541799 0-1.083598 0-1.625397 0-3.250793 0-5.959788-1.625397-8.126984-3.792593-5.417989-5.417989-5.417989-14.086772 0-19.5047614l10.29418-10.2941799 24.922752-24.3809524-34.133334-34.1333333c-5.417989-5.4179894-5.417989-14.08677252 0-19.50476194 5.41799-5.41798941 14.086773-5.41798941 19.504762 0z" fill="#e62d56"/></svg>

<?xml version="1.0" encoding="UTF-8"?>
<svg width="256px" height="116px" viewBox="0 0 256 116" version="1.1" xmlns="http://www.w3.org/2000/svg" xmlns:xlink="http://www.w3.org/1999/xlink" preserveAspectRatio="xMidYMid">
    <g>
        <path d="M175.813757,69.0793651 C181.231746,74.4973545 181.231746,83.1661376 176.897354,89.1259259 C171.479365,94.5439153 162.810582,94.5439153 157.392593,89.1259259 C156.850794,88.584127 156.850794,88.584127 156.850794,88.584127 L143.847619,75.5809524 L110.797884,110.256085 C108.088889,112.965079 104.838095,114.590476 101.045503,114.590476 C97.2529101,114.590476 94.0021164,112.965079 91.2931217,110.256085 L58.2433862,75.5809524 L23.568254,110.256085 C20.8592593,112.965079 17.0666667,114.048677 13.815873,114.048677 C10.0232804,114.048677 6.77248677,112.965079 4.06349206,110.256085 C-1.35449735,104.838095 -1.35449735,96.1693122 4.06349206,90.7513228 L48.4910053,45.7820106 C51.2,43.6148148 54.4507937,41.989418 58.2433862,41.989418 C62.0359788,41.989418 65.2867725,43.6148148 67.9957672,46.3238095 L101.045503,80.9989418 L134.095238,46.3238095 C136.804233,43.6148148 140.055026,41.989418 143.847619,41.989418 C147.640212,41.989418 150.891005,43.6148148 153.6,46.3238095 L175.813757,69.0793651 Z M252.207407,47.9492063 C254.916402,50.1164021 256,53.9089947 256,57.1597884 C256,60.952381 254.916402,64.2031746 252.207407,66.9121693 L207.238095,111.881481 C204.529101,114.590476 200.736508,115.674074 197.485714,115.674074 C196.943915,115.674074 196.402116,115.674074 195.860317,115.674074 C192.609524,115.674074 189.900529,114.048677 187.733333,111.881481 C182.315344,106.463492 182.315344,97.794709 187.733333,92.3767196 L198.027513,82.0825397 L222.950265,57.7015873 L188.816931,23.568254 C183.398942,18.1502646 183.398942,9.48148148 188.816931,4.06349206 C194.234921,-1.35449735 202.903704,-1.35449735 208.321693,4.06349206 L252.207407,47.9492063 Z" fill="#E62D56" fill-rule="nonzero"></path>
    </g>
</svg>
